src/assets/filled/TransactionMinus.svg

<?xml version="1.0" encoding="UTF-8"?>
<svg width="24" height="24" viewBox="0 0 24 24" xmlns="http://www.w3.org/2000/svg">
 <path d="m15.78 2h-7.56c-3.78 0-4.72 1.01-4.72 5.04v11.26c0 2.66 1.46 3.29 3.23 1.39l0.01-0.01c0.82-0.87 2.07-0.8 2.78 0.15l1.01 1.35c0.81 1.07 2.12 1.07 2.93 0l1.01-1.35c0.72-0.96 1.97-1.03 2.79-0.15 1.78 1.9 3.23 1.27 3.23-1.39v-11.25c0.01-4.03-0.93-5.04-4.71-5.04zm-1.03 8.75h-5.5c-0.41 0-0.75-0.34-0.75-0.75s0.34-0.75 0.75-0.75h5.5c0.41 0 0.75 0.34 0.75 0.75s-0.34 0.75-0.75 0.75z"/>
</svg>

<svg width="24" height="24" viewBox="0 0 24 24"  xmlns="http://www.w3.org/2000/svg">
<path d="M15.78 2H8.22C4.44 2 3.5 3.01 3.5 7.04V18.3C3.5 20.96 4.96 21.59 6.73 19.69L6.74 19.68C7.56 18.81 8.81 18.88 9.52 19.83L10.53 21.18C11.34 22.25 12.65 22.25 13.46 21.18L14.47 19.83C15.19 18.87 16.44 18.8 17.26 19.68C19.04 21.58 20.49 20.95 20.49 18.29V7.04C20.5 3.01 19.56 2 15.78 2ZM14.75 10.75H9.25C8.84 10.75 8.5 10.41 8.5 10C8.5 9.59 8.84 9.25 9.25 9.25H14.75C15.16 9.25 15.5 9.59 15.5 10C15.5 10.41 15.16 10.75 14.75 10.75Z" />
</svg>
